packages/core/src/svgs/networks/branded/acala.svg

<svg width="24" height="24" viewBox="0 0 24 24" fill="none" xmlns="http://www.w3.org/2000/svg">
<path fill-rule="evenodd" clip-rule="evenodd" d="M12 22C17.5229 22 22 17.5229 22 12C22 6.47714 17.5229 2 12 2C6.47714 2 2 6.47714 2 12C2 17.5229 6.47714 22 12 22ZM12.0408 21.0612C17.0452 21.0612 21.102 17.0044 21.102 12C21.102 6.99563 17.0452 2.93878 12.0408 2.93878C7.03645 2.93878 2.97959 6.99563 2.97959 12C2.97959 17.0044 7.03645 21.0612 12.0408 21.0612ZM12 20.3673C16.6211 20.3673 20.3673 16.6211 20.3673 12C20.3673 7.37886 16.6211 3.63265 12 3.63265C7.37886 3.63265 3.63265 7.37886 3.63265 12C3.63265 16.6211 7.37886 20.3673 12 20.3673ZM12.0204 19.3469C16.0893 19.3469 19.3878 16.0484 19.3878 11.9796C19.3878 7.91073 16.0893 4.61224 12.0204 4.61224C7.95155 4.61224 4.65306 7.91073 4.65306 11.9796C4.65306 16.0484 7.95155 19.3469 12.0204 19.3469ZM11.6046 6.0271L16.9383 15.28L17.5102 14.2878L12.7485 6.0271H11.6046ZM6.4898 14.2711L11.0548 6.35163L11.0642 6.36796L11.0732 6.35237L16.483 15.7373H15.3391L13.9724 13.3664C13.3514 13.1701 12.6902 13.0642 12.0042 13.0642C11.6507 13.0642 11.3056 13.0889 10.9701 13.1382L11.6289 11.9971C11.7533 11.991 11.8784 11.988 12.0042 11.988C12.4233 11.988 12.8344 12.0219 13.235 12.0871L11.0638 8.32045L7.06176 15.2633L6.4898 14.2711ZM9.59327 14.1507L11.6445 10.5921L11.0726 9.59988L7.53482 15.7373H8.67869L8.68955 15.7184C9.67065 15.1278 10.7964 14.8292 12.0258 14.8292C12.8107 14.8292 13.5633 14.9678 14.2603 15.222L13.494 13.8947C13.0103 13.8002 12.5186 13.7527 12.0258 13.753C11.1751 13.753 10.357 13.8928 9.59327 14.1507Z" fill="url(#paint0_linear_111_48)"/>
<defs>
<linearGradient id="paint0_linear_111_48" x1="20.8776" y1="22" x2="6.12245" y2="3.77551" gradientUnits="userSpaceOnUse">
<stop stop-color="#5A81FF"/>
<stop offset="0.524" stop-color="#E40C5B"/>
<stop offset="1" stop-color="#FF4C3B"/>
</linearGradient>
</defs>
</svg>

<svg xmlns="http://www.w3.org/2000/svg" width="24" height="24" fill="none" viewBox="0 0 24 24">
    <path fill="url(#acala__a)" fill-rule="evenodd" d="M12 22c5.523 0 10-4.477 10-10S17.523 2 12 2 2 6.477 2 12s4.477 10 10 10m.04-.939a9.061 9.061 0 1 0 0-18.122 9.061 9.061 0 0 0 0 18.122m-.04-.694a8.367 8.367 0 1 0 0-16.734 8.367 8.367 0 0 0 0 16.734m.02-1.02a7.367 7.367 0 1 0 0-14.735 7.367 7.367 0 0 0 0 14.735m-.415-13.32 5.333 9.253.572-.992-4.762-8.26zM6.49 14.271l4.565-7.92.01.017.008-.016 5.41 9.385h-1.144l-1.367-2.37a6.5 6.5 0 0 0-1.968-.303 7 7 0 0 0-1.034.074l.659-1.14a7.7 7.7 0 0 1 1.606.09L11.064 8.32l-4.002 6.943zm3.103-.12 2.052-3.559-.572-.992-3.538 6.137h1.144l.01-.019c.982-.59 2.107-.889 3.337-.889a6.5 6.5 0 0 1 2.234.393l-.766-1.327a7.63 7.63 0 0 0-3.9.256" clip-rule="evenodd"/>
    <defs>
        <linearGradient id="acala__a" x1="20.878" x2="6.122" y1="22" y2="3.776" gradientUnits="userSpaceOnUse">
            <stop stop-color="#5A81FF"/>
            <stop offset=".524" stop-color="#E40C5B"/>
            <stop offset="1" stop-color="#FF4C3B"/>
        </linearGradient>
    </defs>
</svg>
